X:2
T:I'm Beginning To See The Light
C:Duke Ellington
L:1/4
M:C
I:linebreak $
K:Ab
z =E S|:"Bbm" F/A/ F"Eb7" A B |"Ab" (3c F F"Fm" z =E |"Bbm" F/A/ F"Eb7" A B |
"E7" (3=B =E =E"Eb7" z =E |$"Bbm" F/A/ F"Eb7" A B |"Ab" (3c"Gb7" e"F7" e (3z e d |
"Bbm" c/A/ F"Eb7" A A |"Ab" "_Fine" A4 :|$[K:C]"C7" z/ c G/ c G | E/ G3/2 c2 ||
[K:B]"B7" z/ B F/ B F | D/ F3/2 B2 ||[K:Bb]"Bb7" z/ B F/ B F |$ D/ F3/2 B B/B/ ||
[K:Ab]"E7" =B/=B/ =B =B A |"Eb4" B2"Eb7" "_D.S. al Fine" =E2 ||

